X: 535
T: Miss Trotter's Jigg
R: jig
B: "Preston's Twenty Four Country Dances for the Year 1804", Tho. Preston, ed. p.228
F: http://imslp.org/wiki/24_Country_Dances_for_the_Year_1804_(Preston_(publisher),_Thomas)
M: 6/8
L: 1/8
K: F
C | FGF cAc | dBG G2A | FGF cAc | Fag fcA | (Bg)B (fAf) |
gGG G2A | Fag fcd | AFF F2 :: c | fag fcA | GAB Bcd |
c>dc cag | fag fcA | BgB AfA | gGG GBd | cag fcd | AFF F2 :|
% - - - - - - - - - - - - - - - - - - - - - - - - -
%%begintext align
%% 1st Cu. set to the 2d Lady & hands 3 round, the
%% same with the 2d Gentn lead down the middle
%% up again, right & left at top.
%%endtext

%%sep 1 1 500
